usr/share/icons/biglinux-icons-material/scalable/mimetypes/text-x-hex.svg

<svg width="24" height="24" viewBox="0 0 24 24" fill="none" xmlns="http://www.w3.org/2000/svg">
<rect x="1" y="1" width="22" height="22" rx="6.6" fill="url(#paint0_radial_6_240)"/>
<path opacity="0.6" d="M9.45455 5V9.45455H5V10.0909H9.45455V13.9091H5V14.5455H9.45455V19H10.0909V14.5455H13.9091V19H14.5455V14.5455H19V13.9091H14.5455V10.0909H19V9.45455H14.5455V5H13.9091V9.45455H10.0909V5H9.45455ZM10.0909 10.0909H13.9091V13.9091H10.0909V10.0909Z" fill="black"/>
<defs>
<radialGradient id="paint0_radial_6_240" cx="0" cy="0" r="1" gradientUnits="userSpaceOnUse" gradientTransform="translate(17.5 1) rotate(116.565) scale(24.5967)">
<stop stop-color="#F4F4F4"/>
<stop offset="1" stop-color="#BBBBBB"/>
</radialGradient>
</defs>
</svg>

<svg xmlns="http://www.w3.org/2000/svg" width="24" height="24" fill="none"><rect width="22" height="22" x="1" y="1" fill="url(#a)" rx="6.6"/><path fill="#000" d="M9.455 5v4.455H5v.636h4.455v3.818H5v.636h4.455V19h.636v-4.454h3.818V19h.636v-4.454H19v-.637h-4.454v-3.818H19v-.636h-4.454V5h-.637v4.455h-3.818V5h-.636Zm.636 5.09h3.818v3.82h-3.818v-3.82Z" opacity=".6"/><defs><radialGradient id="a" cx="0" cy="0" r="1" gradientTransform="rotate(116.565 8.441 5.908) scale(24.5967)" gradientUnits="userSpaceOnUse"><stop stop-color="#F4F4F4"/><stop offset="1" stop-color="#BBB"/></radialGradient></defs></svg>
